X: 2350
T: Báidín Fheilimí
R: slide
M: 12/8
K: Dmajor
|:A2 D FED ABc d2 B|A2 D FED GEE EFG|
A2 D FED ABc d2 c|1 d2 B ABG FDD D2 B:|2 d2 B ABG FDD D2 A||
|:d2 ef2 dg2 e fed|B2 cd2 B ABG FED|
d2 ef2 dg2 e fed|1 B2 d ABG FDD D2 A:|2 B2 d ABG FDD D2 B||

